X:1021
T:Missing Reel, The
R:reel
D:Seamus McGuire & John Lee: The Missing Reel
Z:id:hn-reel-1021
M:C|
L:1/8
K:D
fA~A2 ABde | f2fe dBBc | dA~A2 ABde | fgfe dcde |
fA~A2 ABde | f2fe dBBA | FA~A2 ABde | fgfe d3e ||
faaf a2d'b | a2fd edBd | faaf a2d'b | a2fa ~b3a |
faaf a2d'b | a2fd edBc | dA~A2 ABde | fgfe dcde ||
P:variations
fA~A2 ABde | f2ef dBBA | FAAF ABde | fdef d3e |
fAAF ABde | f2ef dBBA | FAAF ABde | fdef d2e2 ||
faaf a2d'b | a2fd edBd | faaf a2d'b | a2fa b3a |
faaf a2d'b | a2fd efde | fAAF ABde | fgfe d3e ||

